icons/arrow-both-16.svg

<svg xmlns="http://www.w3.org/2000/svg" width="16" height="16" viewBox="0 0 16 16">
  <defs/>
  <path d="M3.72,3.72 C4.016,3.445 4.476,3.453 4.762,3.738 C5.047,4.024 5.055,4.484 4.78,4.78 L2.56,7 L13.44,7 L11.22,4.78 C10.945,4.484 10.953,4.024 11.238,3.738 C11.524,3.453 11.984,3.445 12.28,3.72 L15.78,7.22 C16.072,7.513 16.072,7.987 15.78,8.28 L12.28,11.78 C12.093,11.981 11.811,12.063 11.546,11.995 C11.28,11.928 11.072,11.72 11.005,11.454 C10.937,11.189 11.019,10.907 11.22,10.72 L13.44,8.5 L2.56,8.5 L4.78,10.72 C4.981,10.907 5.063,11.189 4.995,11.454 C4.928,11.72 4.72,11.928 4.454,11.995 C4.189,12.063 3.907,11.981 3.72,11.78 L0.22,8.28 C-0.072,7.987 -0.072,7.513 0.22,7.22 Z"/>
</svg>

<svg xmlns="http://www.w3.org/2000/svg" width="16" height="16" viewBox="0 0 16 16"><path fill-rule="evenodd" d="M3.72 3.72a.75.75 0 011.06 1.06L2.56 7h10.88l-2.22-2.22a.75.75 0 011.06-1.06l3.5 3.5a.75.75 0 010 1.06l-3.5 3.5a.75.75 0 11-1.06-1.06l2.22-2.22H2.56l2.22 2.22a.75.75 0 11-1.06 1.06l-3.5-3.5a.75.75 0 010-1.06l3.5-3.5z"/></svg>
